flaticon/emoticons/rich-1.svg

<svg xmlns="http://www.w3.org/2000/svg" width="32" height="32" viewBox="0 0 24 24">
    <path d="M 12 0 C 5.382812 0 0 5.382812 0 12 C 0 18.617188 5.382812 24 12 24 C 18.617188 24 24 18.617188 24 12 C 24 5.382812 18.617188 0 12 0 Z M 2.816406 16.171875 C 2.859375 16.171875 2.902344 16.179688 2.941406 16.179688 C 2.972656 16.179688 3 16.175781 3.03125 16.175781 C 3.070312 16.171875 3.109375 16.171875 3.148438 16.167969 C 3.277344 16.160156 3.402344 16.144531 3.527344 16.117188 C 4.570312 15.898438 5.605469 15.402344 6.597656 14.652344 C 7.390625 14.054688 8.195312 13.808594 8.996094 13.929688 C 10.5 14.152344 11.546875 15.578125 11.558594 15.589844 C 11.660156 15.734375 11.832031 15.820312 12 15.816406 C 12.175781 15.816406 12.339844 15.734375 12.441406 15.59375 C 12.453125 15.578125 13.503906 14.152344 15.007812 13.929688 C 15.207031 13.898438 15.40625 13.894531 15.605469 13.90625 C 16.207031 13.953125 16.808594 14.203125 17.402344 14.652344 C 18.398438 15.402344 19.429688 15.898438 20.472656 16.117188 C 20.757812 16.175781 21.046875 16.191406 21.324219 16.164062 C 20.746094 16.792969 20.0625 17.261719 19.277344 17.5625 C 16.113281 18.785156 12.273438 16.980469 12.234375 16.964844 C 12.160156 16.925781 12.082031 16.910156 12 16.910156 C 11.917969 16.910156 11.839844 16.925781 11.765625 16.960938 C 11.726562 16.980469 7.886719 18.78125 4.722656 17.5625 C 3.941406 17.261719 3.257812 16.796875 2.679688 16.167969 C 2.726562 16.171875 2.773438 16.167969 2.816406 16.171875 Z M 12 1.089844 C 17.769531 1.089844 22.492188 5.597656 22.871094 11.269531 C 22.390625 10.789062 21.855469 10.488281 21.273438 10.375 C 20.3125 10.183594 19.464844 10.445312 19.058594 11.0625 C 18.71875 11.578125 18.761719 12.246094 19.175781 12.851562 C 19.652344 13.546875 20.410156 13.667969 20.78125 13.632812 C 21.078125 13.605469 21.289062 13.34375 21.265625 13.046875 C 21.242188 12.75 20.976562 12.511719 20.683594 12.546875 C 20.640625 12.550781 20.296875 12.5625 20.078125 12.238281 C 19.984375 12.101562 19.847656 11.847656 19.96875 11.664062 C 20.09375 11.480469 20.488281 11.332031 21.0625 11.445312 C 21.582031 11.546875 22.046875 11.890625 22.488281 12.496094 C 22.820312 12.953125 22.875 13.496094 22.65625 14.003906 C 22.339844 14.644531 21.546875 15.230469 20.699219 15.050781 C 19.816406 14.863281 18.925781 14.4375 18.058594 13.78125 C 17.023438 12.996094 15.9375 12.683594 14.835938 12.851562 C 13.535156 13.050781 12.539062 13.878906 12 14.4375 C 11.464844 13.878906 10.46875 13.050781 9.164062 12.851562 C 8.066406 12.683594 6.980469 12.996094 5.941406 13.78125 C 5.074219 14.4375 4.1875 14.863281 3.300781 15.050781 C 3.191406 15.074219 3.082031 15.085938 2.976562 15.085938 C 2.964844 15.085938 2.957031 15.085938 2.945312 15.085938 C 2.851562 15.085938 2.761719 15.078125 2.675781 15.066406 C 2.652344 15.0625 2.632812 15.054688 2.609375 15.050781 C 2.539062 15.035156 2.46875 15.015625 2.398438 14.992188 C 2.367188 14.984375 2.335938 14.96875 2.308594 14.957031 C 2.253906 14.933594 2.199219 14.910156 2.148438 14.882812 C 2.113281 14.863281 2.082031 14.84375 2.046875 14.820312 C 2.003906 14.792969 1.960938 14.765625 1.921875 14.734375 C 1.890625 14.710938 1.859375 14.6875 1.832031 14.664062 C 1.789062 14.625 1.75 14.589844 1.710938 14.550781 C 1.691406 14.527344 1.667969 14.507812 1.652344 14.484375 C 1.597656 14.429688 1.550781 14.367188 1.507812 14.304688 C 1.503906 14.300781 1.5 14.296875 1.496094 14.289062 C 1.445312 14.214844 1.402344 14.136719 1.367188 14.058594 C 1.363281 14.046875 1.359375 14.039062 1.355469 14.03125 C 1.125 13.515625 1.175781 12.957031 1.511719 12.496094 C 1.867188 12.011719 2.28125 11.546875 2.914062 11.449219 C 3.347656 11.382812 3.683594 11.484375 3.847656 11.742188 C 3.972656 11.933594 3.96875 12.144531 3.914062 12.222656 C 3.714844 12.53125 3.273438 12.546875 3.273438 12.546875 C 2.972656 12.546875 2.726562 12.789062 2.726562 13.089844 C 2.726562 13.390625 2.972656 13.636719 3.273438 13.636719 C 3.65625 13.636719 4.417969 13.464844 4.832031 12.8125 C 5.132812 12.34375 5.105469 11.671875 4.761719 11.148438 C 4.351562 10.519531 3.621094 10.238281 2.746094 10.371094 C 2.023438 10.480469 1.496094 10.875 1.128906 11.25 C 1.515625 5.585938 6.238281 1.089844 12 1.089844 Z M 12 22.910156 C 8.050781 22.910156 4.597656 20.792969 2.683594 17.644531 C 3.183594 18.035156 3.730469 18.351562 4.335938 18.582031 C 7.5 19.796875 11.054688 18.457031 12 18.050781 C 12.664062 18.335938 14.613281 19.082031 16.808594 19.082031 C 17.742188 19.082031 18.71875 18.945312 19.664062 18.582031 C 20.269531 18.351562 20.816406 18.03125 21.316406 17.644531 C 19.402344 20.792969 15.949219 22.910156 12 22.910156 Z M 12 22.910156"/>
    <path d="M5.699219 6.457031C6.90625 5.855469 8.402344 6.449219 9.574219 7.035156 9.652344 7.074219 9.734375 7.089844 9.816406 7.089844 10.019531 7.089844 10.210938 6.980469 10.304688 6.789062 10.441406 6.519531 10.332031 6.191406 10.0625 6.058594 8.773438 5.414062 6.871094 4.652344 5.210938 5.480469 4.941406 5.617188 4.832031 5.945312 4.96875 6.214844 5.101562 6.484375 5.429688 6.589844 5.699219 6.457031zM13.636719 7.089844C13.71875 7.089844 13.800781 7.074219 13.878906 7.035156 15.050781 6.449219 16.550781 5.851562 17.753906 6.457031 18.023438 6.589844 18.351562 6.484375 18.488281 6.214844 18.621094 5.945312 18.511719 5.617188 18.242188 5.480469 16.585938 4.652344 14.679688 5.414062 13.390625 6.058594 13.121094 6.191406 13.011719 6.519531 13.148438 6.789062 13.246094 6.980469 13.4375 7.089844 13.636719 7.089844zM16.910156 8.453125C16.910156 8.90625 16.542969 9.273438 16.089844 9.273438 15.640625 9.273438 15.273438 8.90625 15.273438 8.453125 15.273438 8.003906 15.640625 7.636719 16.089844 7.636719 16.542969 7.636719 16.910156 8.003906 16.910156 8.453125zM8.726562 8.453125C8.726562 8.90625 8.359375 9.273438 7.910156 9.273438 7.457031 9.273438 7.089844 8.90625 7.089844 8.453125 7.089844 8.003906 7.457031 7.636719 7.910156 7.636719 8.359375 7.636719 8.726562 8.003906 8.726562 8.453125zM8.726562 8.453125"/>
</svg>

<svg xmlns="http://www.w3.org/2000/svg" width="32" height="32" viewBox="0 0 24 24">
    <path d="M12 0C5.383 0 0 5.383 0 12s5.383 12 12 12 12-5.383 12-12S18.617 0 12 0zM2.816 16.172c.043 0 .086.008.125.008.032 0 .059-.004.09-.004.04-.004.078-.004.117-.008.13-.008.254-.023.38-.05 1.042-.22 2.077-.716 3.07-1.466.793-.597 1.597-.843 2.398-.722 1.504.222 2.55 1.648 2.563 1.66.101.144.273.23.441.226.176 0 .34-.082.441-.222.012-.016 1.063-1.442 2.567-1.664.199-.032.398-.035.597-.024.602.047 1.204.297 1.797.746.996.75 2.028 1.246 3.07 1.465.286.059.575.074.852.047a5.356 5.356 0 0 1-2.047 1.398c-3.164 1.223-7.004-.582-7.043-.597a.54.54 0 0 0-.469-.004c-.038.02-3.878 1.82-7.042.602a5.362 5.362 0 0 1-2.043-1.395c.047.004.093 0 .136.004zM12 1.09c5.77 0 10.492 4.508 10.871 10.18-.48-.48-1.016-.782-1.598-.895-.96-.191-1.808.07-2.214.688-.34.515-.297 1.183.117 1.789a1.809 1.809 0 0 0 1.605.78.539.539 0 0 0 .485-.585c-.024-.297-.29-.535-.582-.5a.691.691 0 0 1-.606-.309c-.094-.136-.23-.39-.11-.574.126-.184.52-.332 1.095-.219.519.102.984.446 1.425 1.051.332.457.387 1 .168 1.508-.316.64-1.11 1.226-1.957 1.047-.883-.188-1.773-.614-2.64-1.27-1.036-.785-2.122-1.097-3.223-.93-1.3.2-2.297 1.028-2.836 1.586-.535-.558-1.531-1.386-2.836-1.585-1.098-.168-2.184.144-3.223.93-.867.655-1.753 1.081-2.64 1.269-.11.023-.219.035-.324.035h-.032c-.093 0-.183-.008-.27-.02-.023-.004-.042-.011-.066-.015a2.124 2.124 0 0 1-.21-.059c-.032-.008-.063-.023-.09-.035a2.003 2.003 0 0 1-.16-.074 1.425 1.425 0 0 1-.102-.063 1.801 1.801 0 0 1-.215-.156c-.043-.039-.082-.074-.121-.113-.02-.024-.043-.043-.059-.067a1.266 1.266 0 0 1-.144-.18 1.498 1.498 0 0 1-.152-.273 1.502 1.502 0 0 1 .156-1.535c.355-.484.77-.95 1.402-1.047.434-.066.77.035.934.293.125.192.12.403.066.48-.2.31-.64.325-.64.325a.545.545 0 1 0 0 1.09c.382 0 1.144-.172 1.558-.825.3-.468.273-1.14-.07-1.664-.41-.628-1.14-.91-2.016-.777-.723.11-1.25.504-1.617.879C1.516 5.586 6.239 1.09 12 1.09zm0 21.82c-3.95 0-7.402-2.117-9.316-5.265.5.39 1.046.707 1.652.937 3.164 1.215 6.719-.125 7.664-.531.664.285 2.613 1.031 4.809 1.031.933 0 1.91-.137 2.855-.5a6.436 6.436 0 0 0 1.652-.937C19.402 20.793 15.95 22.91 12 22.91zm0 0"/>
    <path d="M5.7 6.457c1.206-.602 2.702-.008 3.874.578.078.04.16.055.242.055.204 0 .395-.11.489-.3a.54.54 0 0 0-.242-.731C8.773 5.414 6.87 4.652 5.21 5.48a.546.546 0 0 0 .488.977zm0 0M13.637 7.09a.535.535 0 0 0 .242-.055c1.172-.586 2.672-1.183 3.875-.578a.55.55 0 0 0 .734-.242.551.551 0 0 0-.246-.735c-1.656-.828-3.562-.066-4.851.579a.54.54 0 0 0-.243.73c.098.191.29.3.489.3zm0 0M16.91 8.453a.82.82 0 1 1-.82-.816.82.82 0 0 1 .82.816zm0 0M8.727 8.453a.82.82 0 1 1-1.637 0 .82.82 0 0 1 1.637 0zm0 0"/>
</svg>
